icon-themes/sifr_svg/cmd/sc_mergedocuments.svg

<svg viewBox="0 0 16 16" xmlns="http://www.w3.org/2000/svg"><path d="m8 1-4 4h2v5h4v-5h2zm0 1.5 1.5 1.5h-.5v5h-2v-5h-.5zm-4 5.5-3 4h2v3h2v-3h2zm8 0-3 4h2v3h2v-3h2z" fill="#555753"/></svg>

<svg xmlns="http://www.w3.org/2000/svg" viewBox="0 0 16 16">
  <path
     style="fill:#555753"
     d="M 8 1 L 4 5 L 6 5 L 6 10 L 10 10 L 10 5 L 12 5 L 8 1 z M 8 2.5 L 9.5 4 L 9 4 L 9 9 L 7 9 L 7 4 L 6.5 4 L 8 2.5 z M 4 8 L 1 12 L 3 12 L 3 15 L 5 15 L 5 12 L 7 12 L 4 8 z M 12 8 L 9 12 L 11 12 L 11 15 L 13 15 L 13 12 L 15 12 L 12 8 z "
     />
</svg>
